X: 31307
T: Paddy Kelly's
R: reel
M: 4/4
K: Gmajor
G2dG BGdG|~G2dG GFDE|~=F2cF AFcF|~=F2cF FECD|
G2dG BGdG|~G2dG GFDE|=FG (3ABc =fefd|1 cA=FA GDE^F:|2 cA=FA G2Bd||
|:g2dg Bgdg|~g2bg afde|~=f2cf Afcf|~=f2af gfd^f|
~g2dg Bgdg|~g2bg afde|=fefa gfdc|1 (3Bcd AF G2Bd:|2 (3Bcd AF GDEF||
|:GA_B=B cABA|GdBd gdBG|~=F2EF cFAF|~=F2AF CFAF|
G2(3A_B=B cABA|GB~B2 GABc|de (3=fed gdfd|1 cA=FA GDE^F:|2 cA=FA GABc||
|:dg~g2 bg~g2|dg~g2 dcBc|d=f~f2 af~f2|d=f~f2 dcBc|
dg~g2 bg~g2|dg~g2 dcBc|de (3=fed gdfd|1 cA=FA GABc:|2 cA=FA GABA||

